scalable/places/folder-orange-development.svg

<?xml version="1.0" encoding="UTF-8" standalone="no"?>
<svg
   width="64"
   height="64"
   version="1"
   id="svg16"
   sodipodi:docname="folder-orange-development.svg"
   inkscape:version="1.2.2 (b0a8486541, 2022-12-01)"
   xmlns:inkscape="http://www.inkscape.org/namespaces/inkscape"
   xmlns:sodipodi="http://sodipodi.sourceforge.net/DTD/sodipodi-0.dtd"
   xmlns:xlink="http://www.w3.org/1999/xlink"
   xmlns="http://www.w3.org/2000/svg"
   xmlns:svg="http://www.w3.org/2000/svg">
  <defs
     id="defs20">
    <linearGradient
       inkscape:collect="always"
       xlink:href="#linearGradient1331"
       id="linearGradient1333"
       x1="72.800003"
       y1="48.800144"
       x2="78.800003"
       y2="54.790291"
       gradientUnits="userSpaceOnUse"
       gradientTransform="translate(-18.8,2.2097087)" />
    <linearGradient
       inkscape:collect="always"
       id="linearGradient1331">
      <stop
         style="stop-color:#000000;stop-opacity:0;"
         offset="0"
         id="stop1327" />
      <stop
         style="stop-color:#000000;stop-opacity:0.148;"
         offset="0.14867319"
         id="stop1337" />
      <stop
         style="stop-color:#000000;stop-opacity:0.132;"
         offset="0.44666761"
         id="stop1335" />
      <stop
         style="stop-color:#ffffff;stop-opacity:0.048;"
         offset="0.80090499"
         id="stop1329" />
    </linearGradient>
  </defs>
  <sodipodi:namedview
     id="namedview18"
     pagecolor="#505050"
     bordercolor="#eeeeee"
     borderopacity="1"
     inkscape:showpageshadow="0"
     inkscape:pageopacity="0"
     inkscape:pagecheckerboard="0"
     inkscape:deskcolor="#505050"
     showgrid="false"
     inkscape:zoom="16.99266"
     inkscape:cx="26.59972"
     inkscape:cy="31.954974"
     inkscape:current-layer="svg16" />
  <g
     id="g1505"
     inkscape:label="folder"
     transform="translate(0,-0.5)">
    <path
       style="fill:#da670b;fill-opacity:1"
       d="M 4,46.2 C 4,47.751 5.2488,49 6.8,49 H 57.2 C 58.751,49 60,47.751 60,46.2 V 15.8 C 60,14.249 58.751,13 57.2,13 H 32 C 27.8,13 26.4,7 22.2,7 H 6.8 C 5.2488,7 4,8.2488 4,9.8"
       id="path4" />
    <path
       id="rect2"
       style="opacity:0.2"
       d="M 6.8007812,20 C 5.2495828,20 4,21.249583 4,22.800781 v 2 28.398438 2 C 4,56.750417 5.2495828,58 6.8007812,58 H 57.199219 C 58.750417,58 60,56.750417 60,55.199219 v -2 -28.398438 -2 C 60,21.249583 58.750417,20 57.199219,20 Z" />
    <rect
       style="fill:#ffffff;fill-opacity:1"
       width="48"
       height="22"
       x="8"
       y="16"
       rx="2.8"
       ry="2.8"
       id="rect8" />
    <path
       id="rect10"
       style="fill:#ff7800"
       d="m 6.8,21 h 50.4 c 1.5512,0 2.8,1.2488 2.8,2.8 V 54.2 C 60,55.7512 58.7512,57 57.2,57 H 6.8 C 5.2488,57 4,55.7512 4,54.2 V 23.8 C 4,22.2488 5.2488,21 6.8,21 Z"
       sodipodi:nodetypes="sssssssss" />
    <path
       style="opacity:0.1;fill:#ffffff"
       d="M 6.8008,7 C 5.2496,7 4,8.2496 4,9.8008 V 10.801 C 4,9.2496 5.2496,8 6.8008,8 H 22.199 c 4.2,0 5.601,6 9.801,6 H 57.199 C 58.75,14 60,15.25 60,16.801 v -1 C 60,14.25 58.75,13 57.199,13 H 32 C 27.8,13 26.399,7 22.199,7 Z"
       id="path12" />
    <path
       d="m 57.2,57.009709 c 1.5512,0 2.8,-1.2488 2.8,-2.8 V 45.01 L 48,57.009709 Z"
       style="fill:url(#linearGradient1333);fill-opacity:1"
       id="path1208"
       sodipodi:nodetypes="ccccc" />
  </g>
  <g
     id="g288"
     inkscape:label="dev"
     transform="translate(0,-0.5)"
     style="fill:#663000;fill-opacity:1">
    <path
       style="fill:#663000;fill-opacity:1"
       d="m 29.476,29 v 0.004 l -0.222,2.633 a 7.9283,7.8567 0 0 0 -2.317,1.328 L 24.523,31.836 22,36.168 24.195,37.68 a 7.9283,7.8567 0 0 0 -0.125,1.324 7.9283,7.8567 0 0 0 0.117,1.332 l -2.187,1.5 2.523,4.332 2.41,-1.129 a 7.9283,7.8567 0 0 0 2.324,1.324 L 29.476,49 h 5.047 l 0.223,-2.633 a 7.9283,7.8567 0 0 0 2.316,-1.328 L 39.476,46.164 42,41.836 39.809,40.328 A 7.9283,7.8567 0 0 0 39.926,39 7.9283,7.8567 0 0 0 39.809,37.672 l 2.188,-1.508 -2.52,-4.328 -2.414,1.125 a 7.9283,7.8567 0 0 0 -2.32,-1.32 L 34.524,29 H 29.477 Z M 32,35 a 4,4 0 0 1 4,4 4,4 0 0 1 -4,4 4,4 0 0 1 -4,-4 4,4 0 0 1 4,-4 z"
       id="path14" />
  </g>
</svg>

<svg xmlns="http://www.w3.org/2000/svg" width="64" height="64" version="1">
 <rect style="opacity:0.2" width="56" height="36" x="4" y="22" rx="2.8" ry="2.8"/>
 <path style="fill:#dd772f" d="M 4,46.2 C 4,47.751 5.2488,49 6.8,49 H 57.2 C 58.751,49 60,47.751 60,46.2 V 15.8 C 60,14.249 58.751,13 57.2,13 H 32 C 27.8,13 26.4,7 22.2,7 H 6.8 C 5.2488,7 4,8.2488 4,9.8"/>
 <rect style="opacity:0.2" width="56" height="36" x="4" y="20" rx="2.8" ry="2.8"/>
 <rect style="fill:#e4e4e4" width="48" height="22" x="8" y="16" rx="2.8" ry="2.8"/>
 <rect style="fill:#ee923a" width="56" height="36" x="4" y="21" rx="2.8" ry="2.8"/>
 <path style="opacity:0.1;fill:#ffffff" d="M 6.8008,7 C 5.2496,7 4,8.2496 4,9.8008 V 10.801 C 4,9.2496 5.2496,8 6.8008,8 H 22.199 C 26.399,8 27.8,14 32,14 H 57.199 C 58.75,14 60,15.25 60,16.801 V 15.801 C 60,14.25 58.75,13 57.199,13 H 32 C 27.8,13 26.399,7 22.199,7 Z"/>
 <path style="fill:#533314" d="M 29.476,29 V 29.004 L 29.254,31.637 A 7.9283,7.8567 0 0 0 26.937,32.965 L 24.523,31.836 22,36.168 24.195,37.68 A 7.9283,7.8567 0 0 0 24.07,39.004 7.9283,7.8567 0 0 0 24.187,40.336 L 22,41.836 24.523,46.168 26.933,45.039 A 7.9283,7.8567 0 0 0 29.257,46.363 L 29.476,49 H 34.523 L 34.746,46.367 A 7.9283,7.8567 0 0 0 37.062,45.039 L 39.476,46.164 42,41.836 39.809,40.328 A 7.9283,7.8567 0 0 0 39.926,39 7.9283,7.8567 0 0 0 39.809,37.672 L 41.997,36.164 39.477,31.836 37.063,32.961 A 7.9283,7.8567 0 0 0 34.743,31.641 L 34.524,29 H 29.477 Z M 32,35 A 4,4 0 0 1 36,39 4,4 0 0 1 32,43 4,4 0 0 1 28,39 4,4 0 0 1 32,35 Z"/>
</svg>
